X:11292
T:Mozarts Waltz,1. TLY.027
M:3/8
L:1/16
Q:40
C:Can't think..
S:Wm.Tildesley,Swinton,Lancs.1860s.
R:Waltz
O:England.
A:Lancashire.
N:Has the same title as the next tune, and it may be the Primo part or
N:not. Somebody could try them out and see if they fit together. CGP.
H:1860.
Z:vmp.Taz Tarry.
K:C
cd|e2e2e2|edefge|f2f2f2|e4e2|d2d2d2|c2c2c2|d2dcde|[E4G4c4]:|!
g2|c'gegc'g|bgdgbg|c'gegc'g|bgdgbg|c'bagfe|dcBAGF|EGcedB|[E4G4c4]:|!
g2|[e4g4] [c2e2]|[c4e4] [e2g2]|[e2g2][d2f2][B2d2]|[B3d3][ce][d2f2]|[c3e3
][df][e2g2]|[e2g2][d2f2][c2e2]|[c2e2][B2d2][B2d2]|[B4d4][e2g2]|[e4g4] e2
|!
c'bagfe|[d4f4][d2B2]|d'c'bagf|e3fe2|d2c2d2|[E2G2c2][E2G2c2][E2G2c2]|[E4G
4c4]:|
